dist/img/pdf.svg

<svg width="30" height="28" viewBox="0 0 30 28" fill="none" xmlns="http://www.w3.org/2000/svg">
<g clip-path="url(#clip0_651_2799)">
<path fill-rule="evenodd" clip-rule="evenodd" d="M30.018 28.667H0V0H30.018V28.667Z" fill="#EA4C3A"/>
<path d="M15.3722 4.37693C15.8242 4.58993 15.7302 4.86593 15.5912 6.16993C15.4492 7.51493 14.9732 9.97193 14.0562 12.3889C13.1382 14.8019 11.7762 17.1729 10.5892 18.9279C9.40322 20.6839 8.38822 21.8249 7.61422 22.4839C6.83722 23.1429 6.30022 23.3189 5.94922 23.3769C5.60122 23.4349 5.44322 23.3769 5.34922 23.1999C5.25522 23.0239 5.22222 22.7339 5.30322 22.3799C5.38222 22.0299 5.57122 21.6199 6.10722 21.0949C6.64822 20.5679 7.53322 19.9229 8.76822 19.3239C10.0032 18.7239 11.5852 18.1679 12.8842 17.7869C14.1832 17.4079 15.1952 17.2019 16.0812 17.0409C16.9692 16.8789 17.7282 16.7639 18.4722 16.7039C19.2162 16.6479 19.9462 16.6479 20.6582 16.7039C21.3702 16.7639 22.0662 16.8789 22.6692 17.0269C23.2692 17.1729 23.7772 17.3479 24.2202 17.6279C24.6622 17.9039 25.0432 18.2849 25.2322 18.7109C25.4242 19.1339 25.4242 19.6039 25.2652 19.9389C25.1072 20.2759 24.7892 20.4799 24.4262 20.5989C24.0622 20.7139 23.6512 20.7429 23.1592 20.5989C22.6692 20.4509 22.0972 20.1289 21.4972 19.7049C20.8962 19.2799 20.2622 18.7529 19.4402 17.9339C18.6162 17.1149 17.6022 16.0039 16.7482 14.9209C15.8942 13.8379 15.1952 12.7849 14.7202 11.8919C14.2472 10.9989 13.9932 10.2679 13.7872 9.53693C13.5812 8.80393 13.4232 8.07293 13.3602 7.41493C13.2972 6.75693 13.3262 6.16993 13.3902 5.70093C13.4532 5.23493 13.5502 4.88093 13.7072 4.64593C13.8652 4.41593 14.0882 4.29593 14.2462 4.23793C14.4042 4.17993 14.5002 4.17993 14.5942 4.16493C14.6882 4.14993 14.7822 4.12093 14.9272 4.16493C15.0652 4.20693 15.2482 4.31893 15.4312 4.43293" stroke="white" stroke-width="1.4" stroke-miterlimit="10" stroke-linejoin="round"/>
</g>
<defs>
<clipPath id="clip0_651_2799">
<rect width="30" height="28" fill="white"/>
</clipPath>
</defs>
</svg>

<svg width="30" height="28" viewBox="0 0 30 28" fill="none" xmlns="http://www.w3.org/2000/svg"><g clip-path="url(#clip0_651_2799)"><path fill-rule="evenodd" clip-rule="evenodd" d="M30.018 28.667H0V0h30.018v28.667z" fill="#EA4C3A"/><path d="M15.372 4.377c.452.213.358.489.22 1.793-.143 1.345-.619 3.802-1.536 6.219-.918 2.413-2.28 4.784-3.467 6.539-1.186 1.756-2.2 2.897-2.975 3.556-.777.659-1.314.835-1.665.893-.348.058-.506 0-.6-.177-.094-.176-.127-.466-.046-.82.08-.35.268-.76.804-1.285.541-.527 1.426-1.172 2.661-1.771 1.235-.6 2.817-1.156 4.116-1.537a30.03 30.03 0 013.197-.746 23.98 23.98 0 012.391-.337 14.241 14.241 0 012.186 0c.712.06 1.408.175 2.011.323.6.146 1.108.32 1.551.6.442.277.823.658 1.012 1.084.192.423.192.893.033 1.228-.158.337-.476.54-.839.66a2.103 2.103 0 01-1.267 0c-.49-.148-1.062-.47-1.662-.894-.6-.425-1.235-.952-2.057-1.771a35.417 35.417 0 01-2.692-3.013c-.854-1.083-1.553-2.136-2.028-3.03a11.318 11.318 0 01-.933-2.354c-.206-.733-.364-1.464-.427-2.122a7.493 7.493 0 01.03-1.714c.063-.466.16-.82.317-1.055.158-.23.381-.35.54-.408.157-.058.253-.058.347-.073.094-.015.188-.044.333 0 .138.042.321.154.504.268" stroke="#fff" stroke-width="1.4" stroke-miterlimit="10" stroke-linejoin="round"/></g><defs><clipPath id="clip0_651_2799"><path fill="#fff" d="M0 0h30v28H0z"/></clipPath></defs></svg>5.8942 13.8379 15.1952 12.7849 14.7202 11.8919C14.2472 10.9989 13.9932 10.2679 13.7872 9.53693C13.5812 8.80393 13.4232 8.07293 13.3602 7.41493C13.2972 6.75693 13.3262 6.16993 13.3902 5.70093C13.4532 5.23493 13.5502 4.88093 13.7072 4.64593C13.8652 4.41593 14.0882 4.29593 14.2462 4.23793C14.4042 4.17993 14.5002 4.17993 14.5942 4.16493C14.6882 4.14993 14.7822 4.12093 14.9272 4.16493C15.0652 4.20693 15.2482 4.31893 15.4312 4.43293" stroke="white" stroke-width="1.4" stroke-miterlimit="10" stroke-linejoin="round"/>
</g>
<defs>
<clipPath id="clip0_651_2799">
<rect width="30" height="28" fill="white"/>
</clipPath>
</defs>
</svg>
